images/1359.svg

<?xml version="1.0" encoding="UTF-8"?>
<svg xmlns="http://www.w3.org/2000/svg" xmlns:xlink="http://www.w3.org/1999/xlink" width="300pt" height="300pt" viewBox="0 0 300 300" version="1.1">
<defs>
<g>
<symbol overflow="visible" id="glyph0-0">
<path style="stroke:none;" d="M 0.796875 2.828125 L 0.796875 -11.28125 L 8.796875 -11.28125 L 8.796875 2.828125 Z M 1.703125 1.9375 L 7.90625 1.9375 L 7.90625 -10.390625 L 1.703125 -10.390625 Z M 1.703125 1.9375 "/>
</symbol>
<symbol overflow="visible" id="glyph0-1">
<path style="stroke:none;" d="M 1.578125 -11.671875 L 8.28125 -11.671875 L 8.28125 -10.34375 L 3.15625 -10.34375 L 3.15625 -6.90625 L 7.78125 -6.90625 L 7.78125 -5.578125 L 3.15625 -5.578125 L 3.15625 0 L 1.578125 0 Z M 1.578125 -11.671875 "/>
</symbol>
<symbol overflow="visible" id="glyph0-2">
<path style="stroke:none;" d="M 1.578125 -11.671875 L 3.703125 -11.671875 L 8.875 -1.90625 L 8.875 -11.671875 L 10.40625 -11.671875 L 10.40625 0 L 8.28125 0 L 3.109375 -9.765625 L 3.109375 0 L 1.578125 0 Z M 1.578125 -11.671875 "/>
</symbol>
</g>
</defs>
<g id="surface29665">
<rect x="0" y="0" width="300" height="300" style="fill:rgb(100%,100%,100%);fill-opacity:1;stroke:none;"/>
<path style="fill:none;stroke-width:1.2;stroke-linecap:butt;stroke-linejoin:miter;stroke:rgb(0%,0%,0%);stroke-opacity:1;stroke-miterlimit:10;" d="M 237.316406 190.101562 L 214.167969 220.546875 "/>
<path style="fill:none;stroke-width:1.2;stroke-linecap:butt;stroke-linejoin:miter;stroke:rgb(0%,0%,0%);stroke-opacity:1;stroke-miterlimit:10;" d="M 227.839844 187.699219 L 209.316406 212.054688 "/>
<path style="fill:none;stroke-width:1.2;stroke-linecap:butt;stroke-linejoin:miter;stroke:rgb(0%,0%,0%);stroke-opacity:1;stroke-miterlimit:10;" d="M 222.527344 154.828125 L 237.316406 190.101562 "/>
<path style="fill:none;stroke-width:1.2;stroke-linecap:butt;stroke-linejoin:miter;stroke:rgb(0%,0%,0%);stroke-opacity:1;stroke-miterlimit:10;" d="M 214.167969 220.546875 L 176.222656 215.722656 "/>
<path style="fill:none;stroke-width:1.2;stroke-linecap:butt;stroke-linejoin:miter;stroke:rgb(0%,0%,0%);stroke-opacity:1;stroke-miterlimit:10;" d="M 176.222656 215.722656 L 161.429688 180.449219 "/>
<path style="fill:none;stroke-width:1.2;stroke-linecap:butt;stroke-linejoin:miter;stroke:rgb(0%,0%,0%);stroke-opacity:1;stroke-miterlimit:10;" d="M 183.042969 208.714844 L 171.207031 180.496094 "/>
<path style="fill:none;stroke-width:1.2;stroke-linecap:butt;stroke-linejoin:miter;stroke:rgb(0%,0%,0%);stroke-opacity:1;stroke-miterlimit:10;" d="M 161.429688 180.449219 L 184.582031 150 "/>
<path style="fill:none;stroke-width:1.2;stroke-linecap:butt;stroke-linejoin:miter;stroke:rgb(0%,0%,0%);stroke-opacity:1;stroke-miterlimit:10;" d="M 161.429688 180.449219 L 142.457031 178.035156 "/>
<path style="fill:none;stroke-width:1.2;stroke-linecap:butt;stroke-linejoin:miter;stroke:rgb(0%,0%,100%);stroke-opacity:1;stroke-miterlimit:10;" d="M 142.457031 178.035156 L 123.484375 175.621094 "/>
<path style="fill:none;stroke-width:1.2;stroke-linecap:butt;stroke-linejoin:miter;stroke:rgb(0%,0%,0%);stroke-opacity:1;stroke-miterlimit:10;" d="M 184.582031 150 L 222.527344 154.828125 "/>
<path style="fill:none;stroke-width:1.2;stroke-linecap:butt;stroke-linejoin:miter;stroke:rgb(0%,0%,0%);stroke-opacity:1;stroke-miterlimit:10;" d="M 187.242188 159.410156 L 217.59375 163.273438 "/>
<path style="fill:none;stroke-width:1.2;stroke-linecap:butt;stroke-linejoin:miter;stroke:rgb(0%,0%,0%);stroke-opacity:1;stroke-miterlimit:10;" d="M 184.582031 150 L 169.789062 114.726562 "/>
<path style="fill:none;stroke-width:1.2;stroke-linecap:butt;stroke-linejoin:miter;stroke:rgb(0%,0%,0%);stroke-opacity:1;stroke-miterlimit:10;" d="M 169.789062 114.726562 L 162.394531 97.089844 "/>
<path style="fill:none;stroke-width:1.2;stroke-linecap:butt;stroke-linejoin:miter;stroke:rgb(20%,80%,80%);stroke-opacity:1;stroke-miterlimit:10;" d="M 162.394531 97.089844 L 154.996094 79.453125 "/>
<path style="fill:none;stroke-width:1.2;stroke-linecap:butt;stroke-linejoin:miter;stroke:rgb(0%,0%,0%);stroke-opacity:1;stroke-miterlimit:10;" d="M 169.789062 114.726562 L 187.425781 107.328125 "/>
<path style="fill:none;stroke-width:1.2;stroke-linecap:butt;stroke-linejoin:miter;stroke:rgb(20%,80%,80%);stroke-opacity:1;stroke-miterlimit:10;" d="M 187.425781 107.328125 L 205.0625 99.933594 "/>
<path style="fill:none;stroke-width:1.2;stroke-linecap:butt;stroke-linejoin:miter;stroke:rgb(0%,0%,0%);stroke-opacity:1;stroke-miterlimit:10;" d="M 169.789062 114.726562 L 152.152344 122.121094 "/>
<path style="fill:none;stroke-width:1.2;stroke-linecap:butt;stroke-linejoin:miter;stroke:rgb(20%,80%,80%);stroke-opacity:1;stroke-miterlimit:10;" d="M 152.152344 122.121094 L 134.515625 129.519531 "/>
<path style=" stroke:none;fill-rule:nonzero;fill:rgb(100%,100%,100%);fill-opacity:1;" d="M 144.996094 69.953125 L 154.996094 69.953125 L 154.996094 88.953125 L 144.996094 88.953125 Z M 144.996094 69.953125 "/>
<g style="fill:rgb(20%,80%,80%);fill-opacity:1;">
  <use xlink:href="#glyph0-1" x="144.996094" y="84.804688"/>
</g>
<path style=" stroke:none;fill-rule:nonzero;fill:rgb(100%,100%,100%);fill-opacity:1;" d="M 200.0625 90.433594 L 210.0625 90.433594 L 210.0625 109.433594 L 200.0625 109.433594 Z M 200.0625 90.433594 "/>
<g style="fill:rgb(20%,80%,80%);fill-opacity:1;">
  <use xlink:href="#glyph0-1" x="200.0625" y="105.285156"/>
</g>
<path style=" stroke:none;fill-rule:nonzero;fill:rgb(100%,100%,100%);fill-opacity:1;" d="M 124.515625 120.019531 L 134.515625 120.019531 L 134.515625 139.019531 L 124.515625 139.019531 Z M 124.515625 120.019531 "/>
<g style="fill:rgb(20%,80%,80%);fill-opacity:1;">
  <use xlink:href="#glyph0-1" x="124.515625" y="134.871094"/>
</g>
<path style="fill:none;stroke-width:1.2;stroke-linecap:butt;stroke-linejoin:miter;stroke:rgb(0%,0%,100%);stroke-opacity:1;stroke-miterlimit:10;" d="M 123.484375 175.621094 L 110.382812 189.550781 "/>
<path style="fill:none;stroke-width:1.2;stroke-linecap:butt;stroke-linejoin:miter;stroke:rgb(0%,0%,0%);stroke-opacity:1;stroke-miterlimit:10;" d="M 110.382812 189.550781 L 97.277344 203.480469 "/>
<path style="fill:none;stroke-width:1.2;stroke-linecap:butt;stroke-linejoin:miter;stroke:rgb(0%,0%,0%);stroke-opacity:1;stroke-miterlimit:10;" d="M 105.085938 142.085938 L 114.285156 158.855469 "/>
<path style="fill:none;stroke-width:1.2;stroke-linecap:butt;stroke-linejoin:miter;stroke:rgb(0%,0%,100%);stroke-opacity:1;stroke-miterlimit:10;" d="M 114.285156 158.855469 L 123.484375 175.621094 "/>
<path style=" stroke:none;fill-rule:nonzero;fill:rgb(100%,100%,100%);fill-opacity:1;" d="M 117.484375 166.121094 L 129.484375 166.121094 L 129.484375 185.121094 L 117.484375 185.121094 Z M 117.484375 166.121094 "/>
<g style="fill:rgb(0%,0%,100%);fill-opacity:1;">
  <use xlink:href="#glyph0-2" x="117.484375" y="180.972656"/>
</g>
<path style="fill:none;stroke-width:1.2;stroke-linecap:butt;stroke-linejoin:miter;stroke:rgb(0%,0%,0%);stroke-opacity:1;stroke-miterlimit:10;" d="M 97.277344 203.480469 L 62.683594 187.167969 "/>
<path style="fill:none;stroke-width:1.2;stroke-linecap:butt;stroke-linejoin:miter;stroke:rgb(0%,0%,0%);stroke-opacity:1;stroke-miterlimit:10;" d="M 97.65625 193.710938 L 69.980469 180.65625 "/>
<path style="fill:none;stroke-width:1.2;stroke-linecap:butt;stroke-linejoin:miter;stroke:rgb(0%,0%,0%);stroke-opacity:1;stroke-miterlimit:10;" d="M 62.683594 187.167969 L 65.09375 168.195312 "/>
<path style="fill:none;stroke-width:1.2;stroke-linecap:butt;stroke-linejoin:miter;stroke:rgb(0%,0%,100%);stroke-opacity:1;stroke-miterlimit:10;" d="M 65.09375 168.195312 L 67.507812 149.222656 "/>
<path style="fill:none;stroke-width:1.2;stroke-linecap:butt;stroke-linejoin:miter;stroke:rgb(0%,0%,100%);stroke-opacity:1;stroke-miterlimit:10;" d="M 67.507812 149.222656 L 86.296875 145.65625 "/>
<path style="fill:none;stroke-width:1.2;stroke-linecap:butt;stroke-linejoin:miter;stroke:rgb(0%,0%,0%);stroke-opacity:1;stroke-miterlimit:10;" d="M 86.296875 145.65625 L 105.085938 142.085938 "/>
<path style="fill:none;stroke-width:1.2;stroke-linecap:butt;stroke-linejoin:miter;stroke:rgb(0%,0%,100%);stroke-opacity:1;stroke-miterlimit:10;" d="M 72.945312 157.351562 L 87.976562 154.496094 "/>
<path style="fill:none;stroke-width:1.2;stroke-linecap:butt;stroke-linejoin:miter;stroke:rgb(0%,0%,0%);stroke-opacity:1;stroke-miterlimit:10;" d="M 87.976562 154.496094 L 103.007812 151.640625 "/>
<path style=" stroke:none;fill-rule:nonzero;fill:rgb(100%,100%,100%);fill-opacity:1;" d="M 61.507812 139.722656 L 73.507812 139.722656 L 73.507812 158.722656 L 61.507812 158.722656 Z M 61.507812 139.722656 "/>
<g style="fill:rgb(0%,0%,100%);fill-opacity:1;">
  <use xlink:href="#glyph0-2" x="61.507812" y="154.574219"/>
</g>
</g>
</svg>

<svg xmlns="http://www.w3.org/2000/svg" xmlns:xlink="http://www.w3.org/1999/xlink" width="300pt" height="300pt" viewBox="0 0 300 300"><defs><symbol overflow="visible"><path d="M.797 2.828v-14.11h8V2.83zm.906-.89h6.203v-12.33H1.703zm0 0"/></symbol><symbol overflow="visible" id="a"><path d="M1.578-11.672H8.28v1.328H3.157v3.438H7.78v1.328H3.157V0H1.578zm0 0"/></symbol><symbol overflow="visible" id="b"><path d="M1.578-11.672h2.125l5.172 9.766v-9.766h1.53V0H8.282L3.11-9.766V0H1.577zm0 0"/></symbol></defs><g><path fill="#fff" d="M0 0h300v300H0z"/><path d="M237.316 190.102l-23.148 30.445M227.84 187.7l-18.524 24.355M222.527 154.828l14.79 35.274M214.168 220.547l-37.945-4.824M176.223 215.723L161.43 180.45M183.043 208.715l-11.836-28.22M161.43 180.45L184.582 150M161.43 180.45l-18.973-2.415" stroke-width="1.2" stroke="#000" stroke-miterlimit="10" fill="none"/><path d="M142.457 178.035l-18.973-2.414" stroke-width="1.2" stroke="#00f" stroke-miterlimit="10" fill="none"/><path d="M184.582 150l37.945 4.828M187.242 159.41l30.352 3.863M184.582 150l-14.793-35.273M169.79 114.727l-7.395-17.637" stroke-width="1.2" stroke="#000" stroke-miterlimit="10" fill="none"/><path d="M162.395 97.09l-7.4-17.637" stroke-width="1.2" stroke="#3cc" stroke-miterlimit="10" fill="none"/><path d="M169.79 114.727l17.636-7.4" stroke-width="1.2" stroke="#000" stroke-miterlimit="10" fill="none"/><path d="M187.426 107.328l17.637-7.394" stroke-width="1.2" stroke="#3cc" stroke-miterlimit="10" fill="none"/><path d="M169.79 114.727l-17.638 7.394" stroke-width="1.2" stroke="#000" stroke-miterlimit="10" fill="none"/><path d="M152.152 122.12l-17.636 7.4" stroke-width="1.2" stroke="#3cc" stroke-miterlimit="10" fill="none"/><path d="M144.996 69.953h10v19h-10zm0 0" fill="#fff"/><use xlink:href="#a" x="144.996" y="84.805" fill="#3cc"/><path d="M200.063 90.434h10v19h-10zm0 0" fill="#fff"/><use xlink:href="#a" x="200.063" y="105.285" fill="#3cc"/><path d="M124.516 120.02h10v19h-10zm0 0" fill="#fff"/><use xlink:href="#a" x="124.516" y="134.871" fill="#3cc"/><path d="M123.484 175.62l-13.1 13.93" stroke-width="1.2" stroke="#00f" stroke-miterlimit="10" fill="none"/><path d="M110.383 189.55l-13.106 13.93M105.086 142.086l9.2 16.77" stroke-width="1.2" stroke="#000" stroke-miterlimit="10" fill="none"/><path d="M114.285 158.855l9.2 16.766" stroke-width="1.2" stroke="#00f" stroke-miterlimit="10" fill="none"/><path d="M117.484 166.12h12v19h-12zm0 0" fill="#fff"/><use xlink:href="#b" x="117.484" y="180.973" fill="#00f"/><path d="M97.277 203.48l-34.593-16.312M97.656 193.71L69.98 180.657M62.684 187.168l2.41-18.973" stroke-width="1.2" stroke="#000" stroke-miterlimit="10" fill="none"/><path d="M65.094 168.195l2.414-18.972M67.508 149.223l18.79-3.567" stroke-width="1.2" stroke="#00f" stroke-miterlimit="10" fill="none"/><path d="M86.297 145.656l18.79-3.57" stroke-width="1.2" stroke="#000" stroke-miterlimit="10" fill="none"/><path d="M72.945 157.352l15.032-2.856" stroke-width="1.2" stroke="#00f" stroke-miterlimit="10" fill="none"/><path d="M87.977 154.496l15.03-2.855" stroke-width="1.2" stroke="#000" stroke-miterlimit="10" fill="none"/><path d="M61.508 139.723h12v19h-12zm0 0" fill="#fff"/><use xlink:href="#b" x="61.508" y="154.574" fill="#00f"/></g></svg>
